T: Looby Light
M: 9/8
L: 1/8
K: Gmaj
|: deg d2 B d3 | deg d2 B A3 | deg d2 B d3 |[1 d2 d cBA G3 :|[2 d2 c B2 A G3 ||G2 G d2 B d3 |[1 d2 d cBA G3 :|[2 d2 c B2 A G3 |]
